Icons/TM_Icons/more icons/spirit-christian.svg

<?xml version='1.0' encoding='utf-8'?>
<ns0:svg xmlns:ns0="http://www.w3.org/2000/svg" version="1.1" viewBox="25.0 0.0 1480.0 1480.0" role="img" focusable="false" preserveAspectRatio="xMidYMid meet">
   <ns0:path fill="currentColor" d="M518 -335v-345h395l99 98v247h247l98 99v395h-345v641h-395l-99 -99v-641h-345v-395h345zM617 -236h-345v197h345v642h198v-642h345v-197h-345v-346h-198v346z" />
</ns0:svg>

<svg xmlns="http://www.w3.org/2000/svg" width="400" height="200" viewBox="-715 -680 2960 1480"><path fill="currentColor" d="M518-335v-345h395l99 98v247h247l98 99v395h-345v641H617l-99-99V60H173v-395zm99 99H272v197h345v642h198V-39h345v-197H815v-346H617z"/></svg>
